X:1
T:Title
%%score ( 1 2 ) 3
L:1/8
Q:1/4=85
M:9/8
K:C
V:1 treble nm="Grand Piano, Soprano"
V:2 treble 
V:3 bass nm="Choir Pad, Angels Would Tell It"
V:1
 [CE][DF][_E^F] [=FA] [=EG]2- [EG]3/2 z/ [CE] | [EG][Ec][Fd] [Ec] [EB]2- [EB]3/2 z/ z | %2
w: By~Edmund~Simon~Lorenz * * * * * *||
 [DB][B,D][CE] [DF] [GB]2- [GB]2 [FA] | [EG][B,D][C_E] [C=E]6 | %4
w: ||
 [CE][DF][D^F] [=FA] [EG]2- [EG]3/2 z/ [CE] | z3 z3 d3- | d3 z3 z3 | [B,G][CA][DB] [Ec]6 | %8
w: ||||
 [Ec][EG][Ec] [Ge] [Ec]2- [Ec]3/2 z/ z | z9 | [Gd][GB][Gd] [Gf] [Gd]2- [Gd]3/2 z/ z | %11
w: |||
 z3 z3 z2 [Ge] | [Ge][Ge][Ge] [Ff] [Ff]2- [Ff]3/2 z/ [Ff] | %13
w: ||
 [Gd][Gd][Ad] [^Ge] [Ge]2- [Ge]3/2 z/ [Gd] | [Ac][Fc][^Gc] [Fd] [Fd]2- [Fd]3/2 z/ [Fc] | %15
w: ||
 [FB][FA][FB] [Ec]6- | [Ec]3 z3 z3 |] %17
w: ||
V:2
 x9 | x9 | x9 | x9 | x9 | [EG][Ec][Ge] [Ae] A2 .F3 | [_Ec][EB][EA] [=EG] [Ec]2 [Ec]2 [CE]/[CE]/ | %7
 x9 | x9 | x9 | x9 | x9 | x9 | x9 | x9 | x9 | x9 |] %17
V:3
 z3 C,3 C,,3 | z3 G,3 G,,3 | z3 G,3 G,,3 | z3 C,3 C,,3 | z3 C,3 C,,3 | z3 F,3 F,,3 | z3 G,3 G,,3 | %7
 z3 C,3 C,,3 | [C,G,][C,C][C,C] [C,C] [C,G,]2- [C,G,]3/2 z/ G, | CG,E, G,6 | %10
 [G,B,][G,D][G,B,] [G,D] [G,B,]2- [G,B,]3/2 z/ G, | DB,G,[K:treble] C3- C3/2 z/ C | %12
 CC[K:bass][_B,C] [A,C][A,C][A,C]/[A,C]/ [A,C][A,C][^G,C] | %13
 [G,B,][G,B,][F,^G,] [E,B,][E,B,][E,B,]/[E,B,]/ [E,B,][E,B,][F,A,] | %14
 [F,A,][F,A,][E,G,] [D,A,][D,A,][D,A,]/[D,A,]/ [D,A,][D,A,][D,A,] | G,G,[G,,G,] [C,G,]6- | %16
 [C,G,]3 z3 z3 |] %17

